X:1
T:Presto from Concerto for trumpets in D
T:Presto from Concerto for trumpets 
T:excerpt for Alto Recorder
T:telemann
C:telemann
L:1/8
Q:1/4=160
M:4/4
K:G
V:1 treble nm="Alto Recorder" snm="A. Rec."
V:1
 b2 ag | b2 ag b2 ag | d'4 defg | a2 b2 abc'a | bdga b2 ag | b2 ag b2 ag | d'4 defg | a2 b2 c'bab | %8
 g4 B2 AG | d2 cB g2 fe | a2 d2 f2 ed | a2 gf d'2 ^c'b | e'2 a2 f2 ed | f2 ed f2 ed | a4 AB^cd | %15
 e2 f2 gfef | d4 b2 ag | b2 ag b2 ag | d'4 defg | a2 b2 abc'a | bdga b2 ag | b2 ag b2 ag | %22
 d'4 defg | a2 b2 c'bab | g4 z4 | bc'bc' Tc'3 b/c'/ | d'2 b2 B2 GB | d2 Bd g2 dB | d2 G2 bc'bc' | %29
 d'c'bc' Tc'3 b/c'/ | d'2 b2 d'2 e'd' | c'bc'd' babc' | a4 b2 ag | b2 ag b2 ag | d'4 defg | %35
 a2 b2 abc'a | bdga b2 ag | b2 ag b2 ag | d'4 defg | a2 b2 c'bab | g4 adfa | bdgb adfa | %42
 b2 G2 fB^df | gBeg fB^df | gegb c'e'c'a | fdfa bd'bg | eceg ac'af | ^dagf Tf3 e | e4 b2 ag | %49
 b2 ag b2 ag | d'4 defg | a2 b2 abc'a | bdga b2 ag | b2 ag b2 ag | d'4 defg | a2 b2 c'bab | %56
 g4 d'4 | d'4 Tc'3 b/c'/ | d'4 b4 | b4 Ta3 g/a/ | b4 b3 c' | d'3 c' d'3 e' | c'3 b c'3 d' | %63
 b3 a b3 ^c' | d'4 b2 ag | b2 ag b2 ag | d'4 defg | a2 b2 abc'a | bdga b2 ag | b2 ag b2 ag | %70
 d'4 defg | a2 b2 c'bab | g4 |] %73

